X:1
T:Title
%%score ( 1 2 ) ( 3 4 5 )
L:1/8
Q:1/4=112
M:3/4
K:Ab
V:1 treble nm="Grand Piano, Soprano"
V:2 treble 
V:3 bass nm="Choir Pad, Peace I Leave with You"
V:4 bass 
V:5 bass 
V:1
 [CE]2 [_C=D]2 [=CE]2 | [Ec]4 [DG][EA] | B2 z2 z2 | [EA]4 [DE]2 | [CE]2 [CA]2 [Ec]2 | c2 z2 z2 | %6
w: By~Frances~Abernathy,~1917 * *||||||
 c2 z2 z2 | A2 z2 z2 | [CE]2 [_C=D]2 [=CE]2 | [Ec]4 [DG][EA] | B2 z2 z2 | [EA]4 E2 | %12
w: ||||||
 [DF]2 G2 [=DFA]2 | E2 A2 [FB]2 | [Ec]4 [DB]>[DB] | [CA]6 | [CE]2 [A,C]2 [CF]2 | [CF]3 [CE] [CE]2 | %18
w: ||||||
 [Ec]2 [Fd]2 [Ec]2 | [=Dc]3 [DB] [DF]2 | [DG]2 [DG]2 [CA]2 | [Ec]2 [DB]2 [DG]2 | [DF]4 [CE]2 | %23
w: |||||
 [A,C]4 z2 | [CE]2 [A,C]2 [CF]2 | [CF]3 [CE] [CE]2 | [Ec]2 [Fd]2 [Ec]2 | [=Dc]3 [DB] [DF]2 | %28
w: |||||
 [DG]2 [DG]2 [CA]2 | [Ec]2 [DB]2 [DE]2 | A6- | A6- | A2 z2 z2 |] %33
w: |||||
V:2
 x6 | x6 | D2- [DF]2 [EG]2 | x6 | x6 | [CF]2- [C-F-B]2 [CFA]2 | =D2- [D-B]2 [DF]2 | %7
 D2- [D-G]2 [D-F][DE] | x6 | x6 | D2- [DF]2 [EG]2 | x6 | x6 | x6 | x6 | x6 | x6 | x6 | x6 | x6 | %20
 x6 | x6 | x6 | x6 | x6 | x6 | x6 | x6 | x6 | x6 | C2 E2 D2 | C6- | C2 z2 z2 |] %33
V:3
 [A,,A,]6 | [A,,A,]4 [B,,E,][C,A,] | F,2 B,4 | [C,A,]4 [B,,G,]2 | [A,,A,]6 | [F,A,]6 | z2 z2 B,2- | %7
 B,4 z2 | [A,,A,]6 | [A,,A,]4 [B,,E,][C,A,] | F,2 B,4 | [C,A,]6 | A,4- [_C,A,]2 | A,4- [D,A,-]2 | %14
 A,4 G,E, | [A,,E,]6 | [A,,A,]2 [A,,E,]2 [A,,A,]2 | [A,,A,]3 [A,,A,] [A,,A,]2 | %18
 [A,,A,]2 [A,,A,]2 [A,,A,]2 | [B,,A,]3 [B,,A,] [B,,B,]2 | [E,B,]2 [E,B,]2 [E,A,]2 | %21
 [E,G,]2 [E,G,]2 [E,B,]2 | [A,,A,]4 [A,,A,]2 | [A,,E,]4 z2 | [A,,A,]2 [A,,E,]2 [A,,A,]2 | %25
 [A,,A,]3 [A,,A,] [A,,A,]2 | [A,,A,]2 [A,,A,]2 [A,,A,]2 | [B,,A,]3 [B,,A,] [B,,B,]2 | %28
 [E,B,]2 [E,B,]2 [E,A,]2 | [E,G,]2 [E,G,]2 [E,G,]2 | A,2 G,2 F,2 | E,6- | E,2 z2 z2 |] %33
V:4
 x6 | x6 | D,6 | x6 | x6 | x6 | A,4 z2 | z2 z2 A,G, | x6 | x6 | D,6 | x6 | D,4 z2 | C,4 z2 | E,6 | %15
 x6 | x6 | x6 | x6 | x6 | x6 | x6 | x6 | x6 | x6 | x6 | x6 | x6 | x6 | x6 | A,,6- | A,,6- | %32
 A,,2 z2 z2 |] %33
V:5
 x6 | x6 | x6 | x6 | x6 | x6 | B,,6 | E,6 | x6 | x6 | x6 | x6 | x6 | x6 | x6 | x6 | x6 | x6 | x6 | %19
 x6 | x6 | x6 | x6 | x6 | x6 | x6 | x6 | x6 | x6 | x6 | x6 | x6 | x6 |] %33

